arb/images/icons/close.svg

<svg width="36" height="36" fill="none" xmlns="http://www.w3.org/2000/svg"><path d="M18 2.25C9.225 2.25 2.25 9.225 2.25 18S9.225 33.75 18 33.75 33.75 26.775 33.75 18 26.775 2.25 18 2.25zm0 29.25c-7.425 0-13.5-6.075-13.5-13.5S10.575 4.5 18 4.5 31.5 10.575 31.5 18 25.425 31.5 18 31.5z" fill="#687A95"/><path d="M24.075 25.875L18 19.8l-6.075 6.075-1.8-1.8L16.2 18l-6.075-6.075 1.8-1.8L18 16.2l6.075-6.075 1.8 1.8L19.8 18l6.075 6.075-1.8 1.8z" fill="#687A95"/></svg>

<svg width="36" height="36" viewBox="0 0 36 36" fill="none" xmlns="http://www.w3.org/2000/svg">
<path d="M18 2.25C9.225 2.25 2.25 9.225 2.25 18C2.25 26.775 9.225 33.75 18 33.75C26.775 33.75 33.75 26.775 33.75 18C33.75 9.225 26.775 2.25 18 2.25ZM18 31.5C10.575 31.5 4.5 25.425 4.5 18C4.5 10.575 10.575 4.5 18 4.5C25.425 4.5 31.5 10.575 31.5 18C31.5 25.425 25.425 31.5 18 31.5Z" fill="#687A95"/>
<path d="M24.075 25.875L18 19.8L11.925 25.875L10.125 24.075L16.2 18L10.125 11.925L11.925 10.125L18 16.2L24.075 10.125L25.875 11.925L19.8 18L25.875 24.075L24.075 25.875Z" fill="#687A95"/>
</svg>
